src/3-context/security-guard.svg

<svg width="1300" height="1000" fill="none" xmlns="http://www.w3.org/2000/svg"><path fill-rule="evenodd" clip-rule="evenodd" d="m206.822 251.321-3.825 14.025a17.077 17.077 0 0 1-.452 3.579c.183.372.362.749.536 1.129 2.01 4.383 2.917 8.615 2.919 13.398 0 1.803-.2 3.959-.486 5.742l-4.864 23.833a24.233 24.233 0 0 1-1.013 3.617c-1.041 2.793-3.202 8.177-5.313 10.829-2.925 3.676-7.167 6.929-11.675 8.613-3.769 1.408-10.807 1.91-12.649 1.914 0 0-8.301-.069-13.135-1.914-5.448-2.079-8.483-4.109-12.162-8.575-2.49-3.022-4.438-8.223-5.322-10.853-.362-1.079-.611-2.188-.801-3.31l-4.093-24.154s-.495-3.492-.487-5.742c.02-5.351.746-8.493 2.919-13.398.178-.401.354-.788.529-1.161a16.988 16.988 0 0 1-.444-3.548l-3.825-14.024a4.999 4.999 0 0 1 2.988-5.966l31.998-12.631a5.005 5.005 0 0 1 3.671 0l31.998 12.631a5 5 0 0 1 2.988 5.966Zm-61.717 18.8c.22-.387.446-.759.68-1.121h48.339c.26.401.51.809.751 1.225A6.002 6.002 0 0 1 189 275h-38a6.002 6.002 0 0 1-5.895-4.879Zm-3.022 7.003c-.78 2.491-1.072 4.74-1.083 7.908-.007 1.896.392 4.839.392 4.839l3.265 20.155c.174 1.079.403 2.145.741 3.184.739 2.271 2.275 6.477 4.224 8.951 2.963 3.764 5.408 5.474 9.797 7.226C163.313 330.941 170 331 170 331c1.484-.004 7.153-.427 10.189-1.613 3.632-1.419 7.049-4.16 9.406-7.258 1.649-2.168 3.337-6.503 4.202-8.91.408-1.135.706-2.302.937-3.486l3.874-19.862c.231-1.503.392-3.319.392-4.839-.001-2.787-.351-5.351-1.102-7.89A16.943 16.943 0 0 1 186 282h-32c-4.642 0-8.849-1.86-11.917-4.876ZM200 251l-3 11h-54l-3-11 30-11 30 11ZM90.504 377.001c-17.528 36.035-23.43 90.5-23.43 92.163 0 43.837 3.646 103.207 3.646 103.207l-2.64 32.249c-1.006 12.304 10.559 21.844 22.447 18.515a.887.887 0 0 0 .613-.61l6.864-24.024-5.5 119.5 2 156.5-18.374 9.025a20 20 0 0 0-11.108 16.219l-.022.256h92.004l-1.5-18a9.999 9.999 0 0 0 4-8v-128l9-125 11.5 125-1.439 127.592a9.97 9.97 0 0 0 4.439 8.408l-1.5 18h90.5a16.76 16.76 0 0 0-9.477-17.842l-17.523-8.158 1.5-156-8-118.5 5.68 22.249a2.225 2.225 0 0 0 1.565 1.594c11.813 3.256 23.307-6.118 22.494-18.344l-2.144-32.259 1.807-106.336s-5.838-54.082-21.279-90.186c-15.902-27.68-43.969-34.623-80.944-34.197-38.119.434-60.13 5.804-75.18 34.979Zm5.476 3.514C79.44 415.786 73 472.47 73 472.47l4.44 101.022-1.537 33.755c-.25 5.486 4.408 9.925 9.875 9.413a.452.452 0 0 0 .397-.345l10.255-42.823 9.49-104.402 7.444-50.023a1.239 1.239 0 0 1 2.46.28L110.43 488l-3 30-8.84 199.02 2.16 161.02-20.179 9.77A13.544 13.544 0 0 0 72.93 900h77.89l-1.99-22.98a4.285 4.285 0 0 0 4.315-4.31l-.725-128.575 11.912-145.778a4.504 4.504 0 0 1 8.973-.045l13.38 145.808-1.197 127.82a5.002 5.002 0 0 0 5.032 5.05L188.43 900h77.832l-.064-3.852a10 10 0 0 0-6.052-9.021l-21.216-9.112 1.5-161.008-8.5-143.152-3-55.855-3-30.5-5.879-68.082a1.287 1.287 0 0 1 2.553-.315l7.866 48.977 9.177 105.412 9.388 42.229c.12.539.58.937 1.131.977 6.086.45 11.157-4.596 10.739-10.683l-2.208-32.16 2.593-104.085s-5.508-53.916-20.08-89.255c-15.006-27.095-39.378-31.912-74.27-31.495-35.971.425-56.759 2.937-70.96 31.495Z" fill="#000"/></svg>

<svg width="1300" height="1000" viewBox="0 0 1300 1000" fill="none" xmlns="http://www.w3.org/2000/svg">
<path fill-rule="evenodd" clip-rule="evenodd" d="M206.822 251.321L202.997 265.346C202.972 266.575 202.817 267.773 202.545 268.925C202.728 269.297 202.907 269.674 203.081 270.054C205.091 274.437 205.998 278.669 206 283.452C206 285.255 205.8 287.411 205.514 289.194L200.65 313.027C200.399 314.256 200.075 315.468 199.637 316.644C198.596 319.437 196.435 324.821 194.324 327.473C191.399 331.149 187.157 334.402 182.649 336.086C178.88 337.494 171.842 337.996 170 338C170 338 161.699 337.931 156.865 336.086C151.417 334.007 148.382 331.977 144.703 327.511C142.213 324.489 140.265 319.288 139.381 316.658C139.019 315.579 138.77 314.47 138.58 313.348L134.487 289.194C134.487 289.194 133.992 285.702 134 283.452C134.02 278.101 134.746 274.959 136.919 270.054C137.097 269.653 137.273 269.266 137.448 268.893C137.18 267.75 137.028 266.564 137.004 265.345L133.179 251.321C132.508 248.861 133.795 246.291 136.167 245.355L168.165 232.724C169.344 232.259 170.657 232.259 171.836 232.724L203.834 245.355C206.205 246.291 207.493 248.861 206.822 251.321ZM145.105 270.121C145.325 269.734 145.551 269.362 145.785 269H194.124C194.384 269.401 194.634 269.809 194.875 270.225C194.31 272.951 191.894 275 189 275H151C148.07 275 145.63 272.899 145.105 270.121ZM142.083 277.124C141.303 279.615 141.011 281.864 141 285.032C140.993 286.928 141.392 289.871 141.392 289.871L144.657 310.026C144.831 311.105 145.06 312.171 145.398 313.21C146.137 315.481 147.673 319.687 149.622 322.161C152.585 325.925 155.03 327.635 159.419 329.387C163.313 330.941 170 331 170 331C171.484 330.996 177.153 330.573 180.189 329.387C183.821 327.968 187.238 325.227 189.595 322.129C191.244 319.961 192.932 315.626 193.797 313.219C194.205 312.084 194.503 310.917 194.734 309.733L198.608 289.871C198.839 288.368 199 286.552 199 285.032C198.999 282.245 198.649 279.681 197.898 277.142C194.832 280.147 190.633 282 186 282H154C149.358 282 145.151 280.14 142.083 277.124ZM200 251L197 262H143L140 251L170 240L200 251Z" fill="black"/>
<path fill-rule="evenodd" clip-rule="evenodd" d="M90.5039 377.001C72.9763 413.036 67.0742 467.501 67.0742 469.164C67.0742 513.001 70.7196 572.371 70.7196 572.371L68.0807 604.62C67.0739 616.924 78.6388 626.464 90.5268 623.135C90.8232 623.052 91.0554 622.821 91.14 622.525L98.0039 598.501L92.5039 718.001L94.5039 874.501L76.13 883.526C69.8427 886.614 65.6291 892.766 65.0223 899.745L65 900.001H157.004L155.504 882.001C158.022 880.113 159.504 877.149 159.504 874.001V746.001L168.504 621.001L180.004 746.001L178.565 873.593C178.527 876.966 180.197 880.13 183.004 882.001L181.504 900.001H272.004C273.187 892.604 269.319 885.32 262.527 882.159L245.004 874.001L246.504 718.001L238.504 599.501L244.184 621.75C244.382 622.524 244.979 623.132 245.749 623.344C257.562 626.6 269.056 617.226 268.243 605L266.099 572.741L267.906 466.405C267.906 466.405 262.068 412.323 246.627 376.219C230.725 348.539 202.658 341.596 165.683 342.022C127.564 342.456 105.553 347.826 90.5039 377.001ZM95.9799 380.515C79.4399 415.786 72.9999 472.47 72.9999 472.47L77.4399 573.492L75.9027 607.247C75.6529 612.733 80.3107 617.172 85.7778 616.66C85.9704 616.642 86.1302 616.503 86.1753 616.315L96.4299 573.492L105.92 469.09L113.364 419.067C113.454 418.464 113.969 418.016 114.579 418.011C115.305 418.005 115.881 418.622 115.824 419.347L110.43 488L107.43 518L98.5899 717.02L100.75 878.04L80.571 887.81C75.8981 890.073 72.9299 894.808 72.9299 900H150.82L148.83 877.02C151.218 877.037 153.159 875.098 153.145 872.71L152.42 744.135L164.332 598.357C164.523 596.02 166.476 594.22 168.821 594.22C171.148 594.22 173.093 595.994 173.305 598.312L186.685 744.12L185.488 871.94C185.461 874.733 187.727 877.007 190.52 876.99L188.43 900H266.262L266.198 896.148C266.132 892.212 263.763 888.681 260.146 887.127L238.93 878.015L240.43 717.007L231.93 573.855L228.93 518L225.93 487.5L220.051 419.418C219.986 418.666 220.578 418.02 221.333 418.02C221.965 418.02 222.504 418.479 222.604 419.103L230.47 468.08L239.647 573.492L249.035 615.721C249.155 616.26 249.615 616.658 250.166 616.698C256.252 617.148 261.323 612.102 260.905 606.015L258.697 573.855L261.29 469.77C261.29 469.77 255.782 415.854 241.21 380.515C226.204 353.42 201.832 348.603 166.94 349.02C130.969 349.445 110.181 351.957 95.9799 380.515Z" fill="black"/>
</svg>
